;FLAVOR:Marlin
;TIME:2006
;Filament used: 2.41913m
;Layer height: 0.2
;MINX:45
;MINY:72.341
;MINZ:0.2
;MAXX:155
;MAXY:127.66
;MAXZ:5
;Generated with Cura_SteamEngine 4.6.0
M140 S80
M105
M190 S80
M104 S225
M105
M109 S225
M82 ;absolute extrusion mode
; -- START GCODE --
G21                     ;set units to millimetres
G90                     ;set to absolute positioning
M106 S0                 ;set fan speed to zero (turned off)
G28 X0 Y0               ;move to the X/Y origin (Home)
G28 Z0                  ;move to the Z origin (Home)
G1 Z15.0 F1200          ;move Z to position 15.0 mm
G92 E0                  ;zero the extruded length
G1 E20 F200             ;extrude 20mm of feed stock
G92 E0                  ;zero the extruded length again
G1 F7200                ;set feedrate to 120 mm/s
; -- end of START GCODE --
G92 E0
G92 E0
G1 F3600 E-5
;LAYER_COUNT:25
;LAYER:0
M107
G0 F4500 X131.556 Y73.32 Z0.2
;TYPE:SKIRT
G1 F3600 E0
G1 F1500 X132.058 Y73.547 E0.02016
G1 X132.696 Y73.903 E0.04689
G1 X132.737 Y73.926 E0.04861
G1 X152.009 Y85.051 E0.86274
G1 X152.052 Y85.076 E0.86456
G1 X152.632 Y85.423 E0.88929
G1 X153.044 Y85.716 E0.90779
G1 X153.253 Y85.907 E0.91814
G1 X153.581 Y86.292 E0.93665
G1 X153.844 Y86.723 E0.95512
G1 X154.037 Y87.191 E0.97364
G1 X154.153 Y87.683 E0.99214
G1 X154.19 Y88.125 E1.00836
G1 X154.2 Y88.838 E1.03445
G1 X154.2 Y111.14 E1.8504
G1 X154.19 Y111.871 E1.87714
G1 X154.15 Y112.333 E1.89411
G1 X154.031 Y112.824 E1.91259
G1 X153.837 Y113.291 E1.93109
G1 X153.571 Y113.721 E1.94959
G1 X153.241 Y114.104 E1.96809
G1 X152.854 Y114.43 E1.9866
G1 X152.63 Y114.577 E1.99641
G1 X151.995 Y114.956 E2.02346
G1 X151.955 Y114.979 E2.02515
G1 X132.696 Y126.097 E2.83874
G1 X132.663 Y126.116 E2.84014
G1 X132.07 Y126.449 E2.86502
G1 X131.611 Y126.661 E2.88352
G1 X131.124 Y126.798 E2.90203
G1 X130.622 Y126.857 E2.92052
G1 X130.117 Y126.836 E2.93901
G1 X129.518 Y126.707 E2.96143
G1 X126.851 Y125.896 E3.06342
G1 X124.198 Y125.17 E3.16405
G1 X121.558 Y124.527 E3.26346
G1 X118.904 Y123.96 E3.36275
G1 X118.898 Y123.959 E3.36297
G1 X116.181 Y123.459 E3.46405
G1 X113.491 Y123.041 E3.56364
G1 X110.76 Y122.696 E3.66435
G1 X108.019 Y122.429 E3.76511
G1 X105.308 Y122.241 E3.86453
G1 X102.594 Y122.131 E3.96391
G1 X99.84 Y122.097 E4.06468
G1 X97.088 Y122.14 E4.16537
G1 X94.37 Y122.261 E4.26491
G1 X91.628 Y122.459 E4.36549
G1 X88.886 Y122.737 E4.46633
G1 X86.186 Y123.087 E4.56594
G1 X83.495 Y123.514 E4.66562
G1 X80.811 Y124.017 E4.76553
G1 X78.128 Y124.6 E4.86598
G1 X75.456 Y125.26 E4.96668
G1 X72.819 Y125.991 E5.06679
G1 X70.549 Y126.688 E5.15367
G1 X70.401 Y126.731 E5.15931
G1 X69.906 Y126.834 E5.17781
G1 X69.401 Y126.858 E5.1963
G1 X68.899 Y126.802 E5.21478
G1 X68.411 Y126.668 E5.2333
G1 X67.941 Y126.453 E5.25221
G1 X67.235 Y126.058 E5.2818
G1 X67.197 Y126.036 E5.28341
G1 X48.044 Y114.979 E6.09253
G1 X47.374 Y114.58 E6.12106
G1 X46.961 Y114.288 E6.13957
G1 X46.6 Y113.935 E6.15804
G1 X46.298 Y113.529 E6.17655
G1 X46.065 Y113.08 E6.19506
G1 X45.905 Y112.601 E6.21354
G1 X45.811 Y111.877 E6.24025
G1 X45.8 Y111.116 E6.26809
G1 X45.8 Y88.825 E7.08363
G1 X45.81 Y88.127 E7.10917
G1 X45.85 Y87.666 E7.1261
G1 X45.969 Y87.175 E7.14459
G1 X46.163 Y86.708 E7.16309
G1 X46.429 Y86.278 E7.18159
G1 X46.759 Y85.895 E7.20008
G1 X47.146 Y85.569 E7.2186
G1 X47.368 Y85.424 E7.2283
G1 X47.965 Y85.067 E7.25375
G1 X48.007 Y85.042 E7.25554
G1 X67.341 Y73.881 E8.07229
G1 X67.379 Y73.859 E8.0739
G1 X67.903 Y73.566 E8.09586
G1 X68.192 Y73.423 E8.10766
G1 X68.668 Y73.252 E8.12617
G1 X69.165 Y73.159 E8.14466
G1 X69.67 Y73.145 E8.16315
G1 X70.171 Y73.211 E8.18164
G1 X70.438 Y73.28 E8.19173
G1 X73.049 Y74.076 E8.29159
G1 X75.674 Y74.798 E8.3912
G1 X78.317 Y75.445 E8.49075
G1 X80.991 Y76.019 E8.59081
G1 X80.992 Y76.019 E8.59085
G1 X83.683 Y76.519 E8.69098
G1 X86.436 Y76.949 E8.79293
G1 X89.096 Y77.288 E8.89103
G1 X91.871 Y77.562 E8.99305
G1 X94.581 Y77.752 E9.09245
G1 X97.301 Y77.866 E9.19205
G1 X100.051 Y77.903 E9.29267
G1 X102.806 Y77.862 E9.39347
G1 X105.517 Y77.746 E9.49275
G1 X108.27 Y77.549 E9.59373
G1 X110.977 Y77.279 E9.69326
G1 X113.697 Y76.93 E9.79359
G1 X116.391 Y76.506 E9.89337
G1 X119.1 Y76 E9.99419
G1 X121.767 Y75.424 E10.09402
G1 X124.439 Y74.767 E10.19469
G1 X127.066 Y74.043 E10.29438
G1 X129.565 Y73.28 E10.38998
G1 X130.059 Y73.171 E10.40849
G1 X130.564 Y73.142 E10.42699
G1 X131.067 Y73.192 E10.44549
G1 X131.556 Y73.32 E10.46398
G0 F4500 X131.564 Y72.902
G1 F1500 X132.253 Y73.197 E10.4914
G1 X132.891 Y73.553 E10.51813
G1 X132.937 Y73.579 E10.52006
G1 X152.209 Y84.704 E11.3342
G1 X152.837 Y85.08 E11.36098
G1 X153.276 Y85.389 E11.38062
G1 X153.536 Y85.624 E11.39344
G1 X153.885 Y86.031 E11.41306
G1 X154.171 Y86.485 E11.43269
G1 X154.386 Y86.976 E11.4523
G1 X154.526 Y87.494 E11.47193
G1 X154.59 Y88.12 E11.49495
G1 X154.6 Y88.833 E11.52104
G1 X154.6 Y111.145 E12.33735
G1 X154.59 Y111.876 E12.3641
G1 X154.55 Y112.364 E12.38201
G1 X154.431 Y112.887 E12.40164
G1 X154.236 Y113.386 E12.42124
G1 X153.968 Y113.851 E12.44087
G1 X153.635 Y114.271 E12.46048
G1 X153.243 Y114.637 E12.4801
G1 X152.835 Y114.92 E12.49827
G1 X152.2 Y115.299 E12.52533
G1 X152.155 Y115.326 E12.52725
G1 X132.896 Y126.444 E13.34084
G1 X132.266 Y126.798 E13.36728
G1 X131.78 Y127.025 E13.3869
G1 X131.266 Y127.177 E13.40651
G1 X130.735 Y127.252 E13.42613
G1 X130.198 Y127.246 E13.44578
G1 X129.6 Y127.144 E13.46798
G1 X129.401 Y127.089 E13.47553
G1 X126.767 Y126.288 E13.57626
G1 X124.103 Y125.559 E13.6773
G1 X121.444 Y124.912 E13.77743
G1 X118.83 Y124.353 E13.87522
G1 X118.826 Y124.352 E13.87538
G1 X116.119 Y123.853 E13.97608
G1 X113.451 Y123.439 E14.07486
G1 X110.708 Y123.093 E14.17601
G1 X107.986 Y122.827 E14.27608
G1 X105.3 Y122.641 E14.37458
G1 X102.573 Y122.531 E14.47443
G1 X99.841 Y122.497 E14.57439
G1 X97.077 Y122.541 E14.67553
G1 X94.416 Y122.658 E14.77298
G1 X91.664 Y122.857 E14.87393
G1 X88.937 Y123.134 E14.97421
G1 X86.268 Y123.48 E15.07268
G1 X83.525 Y123.915 E15.17429
G1 X80.898 Y124.407 E15.27207
G1 X78.204 Y124.993 E15.37294
G1 X75.554 Y125.647 E15.4728
G1 X72.928 Y126.375 E15.5725
G1 X70.666 Y127.07 E15.65908
G1 X70.514 Y127.115 E15.66488
G1 X69.989 Y127.227 E15.68452
G1 X69.454 Y127.26 E15.70413
G1 X68.92 Y127.212 E15.72374
G1 X68.398 Y127.086 E15.74339
G1 X67.745 Y126.802 E15.76944
G1 X67.039 Y126.407 E15.79904
G1 X66.997 Y126.383 E15.80081
G1 X47.844 Y115.326 E16.60993
G1 X47.169 Y114.924 E16.63867
G1 X46.73 Y114.616 E16.65829
G1 X46.341 Y114.246 E16.67793
G1 X46.012 Y113.823 E16.69754
G1 X45.75 Y113.355 E16.71716
G1 X45.559 Y112.854 E16.73678
G1 X45.446 Y112.33 E16.75639
G1 X45.411 Y111.883 E16.7728
G1 X45.4 Y111.122 E16.80064
G1 X45.4 Y88.819 E17.61662
G1 X45.41 Y88.121 E17.64216
G1 X45.45 Y87.635 E17.66
G1 X45.569 Y87.112 E17.67963
G1 X45.764 Y86.613 E17.69923
G1 X46.032 Y86.148 E17.71886
G1 X46.365 Y85.728 E17.73847
G1 X46.757 Y85.362 E17.75809
G1 X47.162 Y85.08 E17.77615
G1 X47.759 Y84.723 E17.8016
G1 X47.807 Y84.695 E17.80363
G1 X67.141 Y73.534 E18.62039
G1 X67.708 Y73.217 E18.64416
G1 X68.028 Y73.058 E18.65723
G1 X68.532 Y72.875 E18.67685
G1 X69.057 Y72.769 E18.69644
G1 X69.593 Y72.742 E18.71608
G1 X70.127 Y72.795 E18.73571
G1 X70.555 Y72.897 E18.75181
G1 X73.167 Y73.693 E18.85171
G1 X75.77 Y74.409 E18.95048
G1 X78.424 Y75.059 E19.05045
G1 X81.074 Y75.628 E19.14961
G1 X83.747 Y76.124 E19.24908
G1 X86.478 Y76.551 E19.35021
G1 X89.15 Y76.891 E19.44875
G1 X91.906 Y77.163 E19.55007
G1 X94.592 Y77.352 E19.64859
G1 X97.323 Y77.467 E19.74859
G1 X100.051 Y77.503 E19.84841
G1 X102.783 Y77.463 E19.94837
G1 X105.507 Y77.346 E20.04813
G1 X108.235 Y77.151 E20.14819
G1 X110.923 Y76.882 E20.24702
G1 X113.656 Y76.532 E20.34783
G1 X116.327 Y76.111 E20.44676
G1 X119.011 Y75.61 E20.54665
G1 X121.684 Y75.033 E20.6467
G1 X124.342 Y74.38 E20.74683
G1 X126.957 Y73.658 E20.84609
G1 X129.448 Y72.898 E20.94137
G1 X129.972 Y72.78 E20.96102
G1 X130.507 Y72.741 E20.98065
G1 X131.041 Y72.782 E21.00024
G1 X131.564 Y72.902 E21.01987
G0 F4500 X131.565 Y72.486
G1 F1500 X132.098 Y72.674 E21.04055
G1 X132.448 Y72.848 E21.05485
G1 X133.086 Y73.204 E21.08158
G1 X133.137 Y73.233 E21.08373
G1 X152.409 Y84.358 E21.89786
G1 X152.463 Y84.389 E21.90014
G1 X153.043 Y84.736 E21.92487
G1 X153.506 Y85.06 E21.94554
G1 X153.818 Y85.342 E21.96093
G1 X154.189 Y85.769 E21.98163
G1 X154.496 Y86.244 E22.00232
G1 X154.732 Y86.757 E22.02298
G1 X154.894 Y87.299 E22.04367
G1 X154.99 Y88.114 E22.0737
G1 X155 Y88.827 E22.09979
G1 X155 Y111.151 E22.91654
G1 X154.99 Y111.882 E22.94328
G1 X154.986 Y111.882 E22.94343
G1 X154.95 Y112.393 E22.96217
G1 X154.831 Y112.946 E22.98287
G1 X154.635 Y113.476 E23.00354
G1 X154.367 Y113.973 E23.0242
G1 X154.031 Y114.428 E23.04489
G1 X153.634 Y114.831 E23.06559
G1 X153.04 Y115.264 E23.09248
G1 X152.405 Y115.643 E23.11954
G1 X152.355 Y115.672 E23.12165
G1 X133.096 Y126.79 E23.93525
G1 X133.055 Y126.814 E23.93699
G1 X132.462 Y127.147 E23.96187
G1 X131.95 Y127.388 E23.98257
G1 X131.41 Y127.555 E24.00325
G1 X130.852 Y127.644 E24.02392
G1 X130.287 Y127.653 E24.0446
G1 X129.499 Y127.531 E24.07377
G1 X129.285 Y127.472 E24.08189
G1 X126.618 Y126.661 E24.18388
G1 X124.009 Y125.947 E24.28284
G1 X121.379 Y125.307 E24.38187
G1 X118.761 Y124.747 E24.47982
G1 X118.753 Y124.746 E24.48012
G1 X116.056 Y124.249 E24.58045
G1 X113.371 Y123.832 E24.67986
G1 X110.655 Y123.49 E24.78002
G1 X107.956 Y123.226 E24.87923
G1 X105.291 Y123.042 E24.97697
G1 X102.551 Y122.93 E25.0773
G1 X99.808 Y122.896 E25.17766
G1 X97.137 Y122.939 E25.27539
G1 X94.427 Y123.059 E25.37464
G1 X91.697 Y123.256 E25.47478
G1 X88.997 Y123.53 E25.57407
G1 X86.311 Y123.878 E25.67316
G1 X83.625 Y124.304 E25.77266
G1 X80.951 Y124.805 E25.87219
G1 X78.279 Y125.386 E25.97224
G1 X75.675 Y126.029 E26.07037
G1 X73.047 Y126.758 E26.17015
G1 X70.783 Y127.453 E26.25679
G1 X70.626 Y127.499 E26.26278
G1 X70.073 Y127.619 E26.28348
G1 X69.509 Y127.66 E26.30417
G1 X68.945 Y127.621 E26.32485
G1 X68.393 Y127.503 E26.34551
G1 X67.862 Y127.308 E26.3662
G1 X67.55 Y127.151 E26.37898
G1 X66.844 Y126.756 E26.40858
G1 X66.797 Y126.729 E26.41056
G1 X47.644 Y115.672 E27.21968
G1 X47.597 Y115.645 E27.22167
G1 X46.964 Y115.268 E27.24862
G1 X46.5 Y114.945 E27.2693
G1 X46.086 Y114.56 E27.28999
G1 X45.731 Y114.12 E27.31067
G1 X45.441 Y113.635 E27.33135
G1 X45.222 Y113.113 E27.35206
G1 X45.079 Y112.567 E27.37271
G1 X45.011 Y111.889 E27.39764
G1 X45 Y111.128 E27.42548
G1 X45 Y88.814 E28.24187
G1 X45.01 Y88.116 E28.26741
G1 X45.014 Y88.116 E28.26755
G1 X45.05 Y87.606 E28.28626
G1 X45.169 Y87.053 E28.30695
G1 X45.365 Y86.523 E28.32763
G1 X45.633 Y86.026 E28.34829
G1 X45.969 Y85.571 E28.36898
G1 X46.366 Y85.168 E28.38968
G1 X46.957 Y84.737 E28.41644
G1 X47.554 Y84.38 E28.44189
G1 X47.607 Y84.349 E28.44413
G1 X66.941 Y73.188 E29.26089
G1 X67.513 Y72.868 E29.28487
G1 X67.864 Y72.693 E29.29922
G1 X68.394 Y72.498 E29.31988
G1 X68.947 Y72.38 E29.34057
G1 X69.511 Y72.341 E29.36125
G1 X70.075 Y72.382 E29.38194
G1 X70.671 Y72.515 E29.40428
G1 X73.241 Y73.298 E29.50258
G1 X75.898 Y74.029 E29.6034
G1 X78.498 Y74.665 E29.70133
G1 X81.135 Y75.232 E29.80001
G1 X81.138 Y75.232 E29.80012
G1 X83.844 Y75.735 E29.90082
G1 X86.523 Y76.153 E30.00002
G1 X89.203 Y76.494 E30.09886
G1 X91.937 Y76.764 E30.19937
G1 X94.636 Y76.954 E30.29836
G1 X97.31 Y77.066 E30.39628
G1 X100.051 Y77.103 E30.49657
G1 X102.796 Y77.062 E30.59701
G1 X105.46 Y76.948 E30.69457
G1 X108.206 Y76.752 E30.79529
G1 X110.9 Y76.483 E30.89434
G1 X113.579 Y76.139 E30.99316
G1 X116.257 Y75.717 E31.09235
G1 X118.931 Y75.218 E31.19187
G1 X121.61 Y74.639 E31.29214
G1 X124.213 Y74 E31.3902
G1 X126.849 Y73.273 E31.49025
G1 X129.332 Y72.515 E31.58523
G1 X129.883 Y72.389 E31.60591
G1 X130.446 Y72.341 E31.62658
G1 X131.011 Y72.374 E31.64729
G1 X131.565 Y72.486 E31.66797
G1 F3600 E26.66797
;MESH:Tuercas_CPU.stl
G0 F4500 X131.14 Y75.931
G0 X130.5 Y77.041
G0 X118.067 Y90.085
G0 X117.037 Y91.453
G0 X116.21 Y92.828
G0 X115.498 Y94.342
G0 X114.806 Y96.455
G0 X114.481 Y98.084
G0 X114.362 Y99.918
G0 X114.433 Y101.523
G0 X114.766 Y103.529
G0 X115.881 Y107.631
;TYPE:WALL-INNER
G1 F3600 E31.66797
G1 F1500 X116.207 Y108.243 E31.69334
G1 X116.333 Y108.454 E31.70233
G1 X116.696 Y109.037 E31.72745
G1 X116.946 Y109.408 E31.74382
G1 X117.372 Y109.991 E31.77024
G1 X117.633 Y110.325 E31.78575
G1 X118.247 Y111.052 E31.82056
G1 X119.047 Y111.879 E31.86266
G1 X119.905 Y112.65 E31.90486
G1 X120.816 Y113.36 E31.94712
G1 X121.773 Y114.004 E31.98932
G1 X122.773 Y114.58 E32.03154
G1 X123.811 Y115.084 E32.07376
G1 X124.868 Y115.507 E32.11541
G1 X124.881 Y115.513 E32.11593
G1 X125.977 Y115.868 E32.15808
G1 X126.833 Y116.082 E32.19037
G1 X127.314 Y116.183 E32.20835
G1 X128.315 Y116.355 E32.24551
G1 X129.421 Y116.462 E32.28616
G1 X129.434 Y116.464 E32.28664
G1 X130.355 Y116.496 E32.32036
G1 X131.085 Y116.489 E32.34707
G1 X131.953 Y116.435 E32.37888
G1 X132.504 Y116.377 E32.39916
G1 X133.043 Y116.302 E32.41907
G1 X133.581 Y116.21 E32.43903
G1 X134.11 Y116.099 E32.45881
G1 X134.631 Y115.975 E32.4784
G1 X135.149 Y115.833 E32.49805
G1 X135.683 Y115.666 E32.51852
G1 X136.206 Y115.482 E32.53881
G1 X136.729 Y115.28 E32.55932
G1 X137.248 Y115.058 E32.57997
G1 X137.774 Y114.793 E32.60152
G1 X138.28 Y114.517 E32.62261
G1 X138.781 Y114.221 E32.6439
G1 X139.274 Y113.904 E32.66534
G1 X139.758 Y113.568 E32.6869
G1 X140.229 Y113.215 E32.70843
G1 X140.69 Y112.845 E32.73006
G1 X141.143 Y112.454 E32.75195
G1 X141.576 Y112.049 E32.77365
G1 X141.997 Y111.628 E32.79543
G1 X142.401 Y111.191 E32.8172
G1 X142.791 Y110.742 E32.83896
G1 X143.161 Y110.277 E32.8607
G1 X143.515 Y109.801 E32.88241
G1 X143.849 Y109.315 E32.90398
G1 X144.165 Y108.816 E32.92559
G1 X144.44 Y108.349 E32.94542
G1 X144.793 Y107.681 E32.97306
G1 X145.149 Y106.938 E33.0032
G1 X145.422 Y106.271 E33.02957
G1 X145.644 Y105.676 E33.0528
G1 X145.862 Y104.996 E33.07893
G1 X146.081 Y104.187 E33.10959
G1 X146.225 Y103.514 E33.13477
G1 X146.375 Y102.637 E33.16733
G1 X146.444 Y102.072 E33.18815
G1 X146.492 Y101.512 E33.20871
G1 X146.523 Y100.946 E33.22945
G1 X146.53 Y100.378 E33.25024
G1 X146.52 Y99.81 E33.27102
G1 X146.486 Y99.239 E33.29195
G1 X146.436 Y98.67 E33.31284
G1 X146.357 Y98.057 E33.33546
G1 X146.256 Y97.474 E33.35711
G1 X146.151 Y96.95 E33.37666
G1 X146.024 Y96.421 E33.39656
G1 X145.852 Y95.779 E33.42088
G1 X145.597 Y94.992 E33.45115
G1 X145.367 Y94.367 E33.47551
G1 X145.064 Y93.65 E33.50399
G1 X144.617 Y92.743 E33.54098
G1 X144.127 Y91.888 E33.57704
G1 X143.638 Y91.12 E33.61035
G1 X143.073 Y90.345 E33.64544
G1 X142.466 Y89.606 E33.68043
G1 X141.815 Y88.908 E33.71535
G1 X141.123 Y88.248 E33.75033
G1 X140.39 Y87.631 E33.78539
G1 X139.605 Y87.046 E33.8212
G1 X138.838 Y86.533 E33.85496
G1 X138.828 Y86.528 E33.85537
G1 X138.011 Y86.049 E33.89002
G1 X137.157 Y85.619 E33.925
G1 X136.277 Y85.239 E33.96007
G1 X135.377 Y84.914 E33.99508
G1 X134.457 Y84.643 E34.03017
G1 X133.481 Y84.42 E34.0668
G1 X132.591 Y84.259 E34.09989
G1 X131.79 Y84.164 E34.1294
G1 X131.78 Y84.162 E34.12977
G1 X131.208 Y84.122 E34.15075
G1 X130.393 Y84.09 E34.18059
G1 X129.694 Y84.097 E34.20617
G1 X129.14 Y84.128 E34.22647
G1 X128.595 Y84.172 E34.24647
G1 X128.065 Y84.231 E34.26598
G1 X127.538 Y84.308 E34.28547
G1 X127.006 Y84.402 E34.30523
G1 X126.467 Y84.52 E34.32542
G1 X125.937 Y84.654 E34.34542
G1 X125.405 Y84.807 E34.36567
G1 X124.876 Y84.98 E34.38604
G1 X124.354 Y85.171 E34.40637
G1 X123.836 Y85.379 E34.4268
G1 X123.345 Y85.596 E34.44644
G1 X122.815 Y85.856 E34.46803
G1 X122.296 Y86.131 E34.48952
G1 X121.784 Y86.429 E34.5112
G1 X121.288 Y86.744 E34.53269
G1 X120.805 Y87.075 E34.55412
G1 X120.329 Y87.424 E34.57571
G1 X119.871 Y87.791 E34.59718
G1 X119.426 Y88.171 E34.61859
G1 X118.993 Y88.569 E34.64011
G1 X118.578 Y88.983 E34.66156
G1 X118.177 Y89.409 E34.68296
G1 X117.791 Y89.853 E34.70449
G1 X117.422 Y90.309 E34.72595
G1 X117.069 Y90.775 E34.74734
G1 X116.739 Y91.249 E34.76847
G1 X116.179 Y92.08 E34.80513
G1 X116.205 Y92.106 E34.80647
G1 X115.893 Y92.657 E34.82964
G1 X115.631 Y93.165 E34.85055
G1 X115.388 Y93.681 E34.87142
G1 X115.164 Y94.207 E34.89234
G1 X114.962 Y94.735 E34.91302
G1 X114.773 Y95.271 E34.93381
