;FLAVOR:Marlin
;TIME:7234
;Filament used: 6.27363m
;Layer height: 0.15
;MINX:66.6
;MINY:74.1
;MINZ:0.15
;MAXX:133.399
;MAXY:125.9
;MAXZ:9.9
;Generated with Cura_SteamEngine 4.5.0
M140 S100
M105
M190 S100
M104 S245
M105
M109 S245
M82 ;absolute extrusion mode
; -- START GCODE --
G21                     ;set units to millimetres
G90                     ;set to absolute positioning
M106 S0                 ;set fan speed to zero (turned off)
G28 X0 Y0               ;move to the X/Y origin (Home)
G28 Z0                  ;move to the Z origin (Home)
G1 Z15.0 F1200          ;move Z to position 15.0 mm
G92 E0                  ;zero the extruded length
G1 E20 F200             ;extrude 20mm of feed stock
G92 E0                  ;zero the extruded length again
G1 F7200                ;set feedrate to 120 mm/s
; -- end of START GCODE --
G92 E0
G92 E0
G1 F9000 E-3
;LAYER_COUNT:66
;LAYER:0
M107
M204 S5000
G0 F3600 X68.599 Y75.881 Z0.15
M204 S500
;TYPE:SKIRT
G1 F9000 E0
G1 F1500 X69.448 Y75.197 E0.0272
G1 X70.338 Y74.698 E0.05265
G1 X71.284 Y74.351 E0.07778
G1 X71.693 Y74.252 E0.08828
G1 X72.444 Y74.152 E0.10718
G1 X74.358 Y74.101 E0.15494
G1 X126.341 Y74.1 E1.45166
G1 X127.039 Y74.11 E1.46908
G1 X127.713 Y74.173 E1.48596
G1 X128.425 Y74.291 E1.50397
G1 X129.129 Y74.487 E1.5222
G1 X130.143 Y74.943 E1.54993
G1 X130.975 Y75.504 E1.57496
G1 X131.617 Y76.096 E1.59675
G1 X132.297 Y76.938 E1.62374
G1 X132.802 Y77.837 E1.64947
G1 X133.149 Y78.786 E1.67467
G1 X133.247 Y79.191 E1.68507
G1 X133.347 Y79.972 E1.70471
G1 X133.363 Y80.849 E1.72659
G1 X133.399 Y118.831 E2.67405
G1 X133.391 Y119.513 E2.69107
G1 X133.315 Y120.365 E2.7124
G1 X133.186 Y121.044 E2.72964
G1 X132.969 Y121.764 E2.7484
G1 X132.56 Y122.636 E2.77243
G1 X131.996 Y123.475 E2.79765
G1 X131.404 Y124.117 E2.81943
G1 X130.564 Y124.795 E2.84636
G1 X129.674 Y125.296 E2.87184
G1 X128.707 Y125.651 E2.89753
G1 X128.306 Y125.748 E2.90782
G1 X127.556 Y125.848 E2.9267
G1 X125.642 Y125.899 E2.97446
G1 X73.66 Y125.9 E4.27116
G1 X72.955 Y125.89 E4.28874
G1 X72.367 Y125.851 E4.30344
G1 X71.357 Y125.665 E4.32906
G1 X70.734 Y125.469 E4.34535
G1 X69.854 Y125.055 E4.36961
G1 X69.023 Y124.494 E4.39463
G1 X68.381 Y123.901 E4.41643
G1 X67.703 Y123.062 E4.44333
G1 X67.188 Y122.141 E4.46966
G1 X66.849 Y121.207 E4.49444
G1 X66.664 Y120.271 E4.51824
G1 X66.606 Y119.169 E4.54577
G1 X66.6 Y81.156 E5.49401
G1 X66.61 Y80.448 E5.51167
G1 X66.648 Y79.873 E5.52605
G1 X66.835 Y78.856 E5.55184
G1 X67.032 Y78.233 E5.56814
G1 X67.439 Y77.365 E5.59205
G1 X68.004 Y76.525 E5.61731
G1 X68.599 Y75.881 E5.63918
M204 S5000
G0 F3600 X68.864 Y76.181
M204 S500
G1 F1500 X69.659 Y75.536 E5.66472
G1 X70.492 Y75.067 E5.68856
G1 X71.378 Y74.74 E5.71212
G1 X71.787 Y74.641 E5.72262
G1 X72.455 Y74.552 E5.73943
G1 X74.369 Y74.501 E5.78719
G1 X126.335 Y74.5 E7.08349
G1 X127.033 Y74.51 E7.1009
G1 X127.664 Y74.57 E7.11671
G1 X128.357 Y74.685 E7.13424
G1 X128.983 Y74.86 E7.15045
G1 X129.935 Y75.285 E7.17646
G1 X130.716 Y75.808 E7.1999
G1 X131.317 Y76.362 E7.22029
G1 X131.957 Y77.15 E7.24562
G1 X132.432 Y77.991 E7.26971
G1 X132.76 Y78.88 E7.29335
G1 X132.858 Y79.285 E7.30374
G1 X132.947 Y79.98 E7.32122
G1 X132.963 Y80.857 E7.3431
G1 X132.999 Y118.831 E8.29037
G1 X132.991 Y119.508 E8.30726
G1 X132.922 Y120.29 E8.32684
G1 X132.793 Y120.969 E8.34408
G1 X132.6 Y121.609 E8.36076
G1 X132.218 Y122.429 E8.38332
G1 X131.692 Y123.215 E8.40691
G1 X131.138 Y123.817 E8.42732
G1 X130.352 Y124.456 E8.45259
G1 X129.519 Y124.927 E8.47646
G1 X128.613 Y125.262 E8.50056
G1 X128.212 Y125.359 E8.51085
G1 X127.545 Y125.448 E8.52763
G1 X125.631 Y125.499 E8.5754
G1 X73.666 Y125.5 E9.87167
G1 X72.961 Y125.49 E9.88926
G1 X72.398 Y125.452 E9.90333
G1 X71.442 Y125.274 E9.92759
G1 X70.889 Y125.1 E9.94205
G1 X70.063 Y124.714 E9.96479
G1 X69.283 Y124.19 E9.98823
G1 X68.68 Y123.635 E10.00868
G1 X68.043 Y122.85 E10.0339
G1 X67.558 Y121.989 E10.05855
G1 X67.238 Y121.113 E10.08181
G1 X67.062 Y120.235 E10.10415
G1 X67.006 Y119.155 E10.13112
G1 X67 Y81.162 E11.07886
G1 X67.01 Y80.454 E11.09653
G1 X67.047 Y79.903 E11.1103
G1 X67.226 Y78.942 E11.13469
G1 X67.401 Y78.387 E11.1492
G1 X67.781 Y77.573 E11.17161
G1 X68.308 Y76.784 E11.19528
G1 X68.864 Y76.181 E11.21574
M204 S5000
G1 F9000 E8.21574
;MESH:soporte_motor.stl
G0 F3600 X70.618 Y77.992
G0 X71.324 Y78.815
G0 X71.448 Y78.946
M204 S500
;TYPE:WALL-INNER
G1 F9000 E11.21574
G1 F1500 X71.564 Y78.847 E11.21955
G1 X71.709 Y78.723 E11.2243
G1 X72.006 Y78.541 E11.23299
G1 X72.072 Y78.514 E11.23477
G1 X72.322 Y78.411 E11.24152
G1 X72.6 Y78.345 E11.24864
G1 X72.358 Y78.476 E11.24921
G1 X72.112 Y78.61 E11.25088
G1 X72.08 Y78.635
G1 X71.806 Y78.847 E11.25401
G1 X71.661 Y78.959 E11.2557
G1 X71.571 Y79.058 E11.25687
G1 X71.336 Y79.314 E11.26547
G1 X71.276 Y79.38 E11.2677
G1 X71.158 Y79.56 E11.27307
G1 X70.962 Y79.858 E11.28196
G1 X70.829 Y80.162 E11.29024
G1 X70.904 Y79.845 E11.2908
G1 X70.91 Y79.823
G1 X71.049 Y79.489 E11.29303
G1 X71.16 Y79.309 E11.29476
G1 X71.221 Y79.21 E11.29592
G1 X71.448 Y78.946 E11.29942
M204 S5000
G0 F3600 X70.871 Y80.499
G0 X70.833 Y119.847
M204 S500
G1 F1500 X70.962 Y120.142 E11.30745
G1 X71.147 Y120.423 E11.31584
G1 X71.276 Y120.62 E11.32171
G1 X71.333 Y120.682 E11.32382
G1 X71.568 Y120.939 E11.3325
G1 X71.661 Y121.041 E11.33595
G1 X71.806 Y121.153 E11.34052
G1 X72.064 Y121.353 E11.34866
G1 X72.112 Y121.39 E11.35017
G1 X72.358 Y121.524 E11.35716
G1 X72.602 Y121.657 E11.36409
G1 X72.323 Y121.59 E11.3649
G1 X72.073 Y121.486 E11.3663
G1 X71.989 Y121.451 E11.36653
G1 X71.71 Y121.279 E11.36942
G1 X71.565 Y121.154 E11.37131
G1 X71.446 Y121.052 E11.37298
G1 X71.219 Y120.787 E11.37652
G1 X71.161 Y120.691 E11.37739
G1 X71.04 Y120.494 E11.37926
G1 X70.912 Y120.181 E11.38157
G1 X70.906 Y120.156
G1 X70.833 Y119.853 E11.38204
G1 X70.833 Y119.847
M204 S5000
G0 F3600 X71.77 Y120.923
G0 X72.736 Y121.532
G0 X74.456 Y121.634
G0 X127.4 Y121.655
M204 S500
G1 F1500 X127.642 Y121.524 E11.38891
G1 X127.888 Y121.39 E11.3959
G1 X127.92 Y121.365 E11.39691
G1 X128.194 Y121.153 E11.40555
G1 X128.339 Y121.041 E11.41012
G1 X128.429 Y120.942 E11.41346
G1 X128.664 Y120.686 E11.42213
G1 X128.724 Y120.62 E11.42435
G1 X128.842 Y120.44 E11.42972
G1 X129.038 Y120.142 E11.43862
G1 X129.171 Y119.838 E11.4469
G1 X129.096 Y120.155 E11.44745
G1 X129.09 Y120.177
G1 X128.951 Y120.511 E11.44969
G1 X128.84 Y120.691 E11.45141
G1 X128.779 Y120.79 E11.45257
G1 X128.552 Y121.054 E11.45607
G1 X128.436 Y121.153 E11.45771
G1 X128.291 Y121.277 E11.45959
G1 X127.994 Y121.459 E11.46276
G1 X127.928 Y121.486
G1 X127.678 Y121.589 E11.46418
G1 X127.4 Y121.655 E11.465
M204 S5000
G0 F3600 X128.23 Y120.923
G0 X128.898 Y120.063
G0 X129.125 Y80.49
G0 X128.596 Y79.479
G0 X127.398 Y78.343
M204 S500
G1 F1500 X127.677 Y78.41 E11.47216
G1 X127.927 Y78.514 E11.47891
G1 X128.011 Y78.549 E11.48118
G1 X128.29 Y78.721 E11.48936
G1 X128.435 Y78.846 E11.49413
G1 X128.554 Y78.948 E11.49804
G1 X128.777 Y79.209 E11.50661
G1 X128.838 Y79.309 E11.50953
G1 X128.959 Y79.506 E11.5153
G1 X129.089 Y79.822 E11.52382
G1 X129.094 Y79.845 E11.52441
G1 X129.163 Y80.144 E11.53206
G1 X129.038 Y79.858 E11.53271
G1 X128.853 Y79.576 E11.53491
G1 X128.724 Y79.38 E11.53685
G1 X128.663 Y79.314 E11.5373
G1 X128.432 Y79.061 E11.54077
G1 X128.339 Y78.959 E11.54199
G1 X128.194 Y78.847 E11.54368
G1 X127.936 Y78.647 E11.54654
G1 X127.888 Y78.61
G1 X127.642 Y78.476 E11.54818
G1 X127.398 Y78.343 E11.54877
M204 S5000
G0 F3600 X125.14 Y78.343
G0 X124.202 Y78.744
G0 X76.644 Y121.3
M204 S500
G1 F1500 X76.949 Y120.967 E11.56003
G1 X77.041 Y120.866 E11.56344
G1 X77.391 Y120.333 E11.57935
G1 X77.646 Y119.75 E11.59522
G1 X77.802 Y119.134 E11.61107
G1 X77.854 Y118.5 E11.62694
G1 X77.802 Y117.866 E11.64281
G1 X77.646 Y117.25 E11.65866
G1 X77.391 Y116.667 E11.67453
G1 X77.041 Y116.134 E11.69044
G1 X76.611 Y115.664 E11.70633
G1 X76.107 Y115.274 E11.72223
G1 X75.55 Y114.971 E11.73805
G1 X74.945 Y114.763 E11.754
G1 X74.318 Y114.659 E11.76986
G1 X73.682 Y114.659 E11.78572
G1 X73.055 Y114.763 E11.80158
G1 X72.45 Y114.971 E11.81754
G1 X71.893 Y115.274 E11.83335
G1 X71.558 Y115.533 E11.84392
G1 X71.389 Y115.664 E11.84925
G1 X71.2 Y115.871 E11.85624
G1 X71.2 Y115.664 E11.85708
G1 X71.2 Y115.45 E11.86115
G1 X71.2 Y84.55 E12.63196
G1 X71.2 Y84.336 E12.6373
G1 X71.2 Y84.129 E12.64246
G1 X71.389 Y84.336 E12.64512
G1 X71.558 Y84.467 E12.64918
G1 X71.893 Y84.726 E12.65975
G1 X72.45 Y85.029 E12.67556
G1 X73.055 Y85.237 E12.69152
G1 X73.682 Y85.341 E12.70738
G1 X74.315 Y85.341 E12.72317
G1 X74.941 Y85.239 E12.73899
G1 X75.55 Y85.029 E12.75506
G1 X76.107 Y84.726 E12.77088
G1 X76.611 Y84.336 E12.78677
G1 X77.041 Y83.866 E12.80266
G1 X77.391 Y83.333 E12.81857
G1 X77.646 Y82.75 E12.83444
G1 X77.802 Y82.134 E12.85029
G1 X77.854 Y81.5 E12.86616
G1 X77.802 Y80.866 E12.88203
G1 X77.646 Y80.25 E12.89788
G1 X77.391 Y79.667 E12.91375
G1 X77.041 Y79.134 E12.92966
G1 X76.949 Y79.033 E12.93307
G1 X76.644 Y78.7 E12.94433
G1 X77.095 Y78.7 E12.95043
G1 X77.096 Y78.7 E12.95046
G1 X122.904 Y78.7 E14.09314
G1 X122.905 Y78.7 E14.09317
G1 X123.356 Y78.7 E14.10442
G1 X123.051 Y79.033 E14.11052
G1 X122.959 Y79.134 E14.11393
G1 X122.609 Y79.667 E14.12984
G1 X122.354 Y80.25 E14.14571
G1 X122.198 Y80.866 E14.16156
G1 X122.146 Y81.5 E14.17743
G1 X122.198 Y82.134 E14.1933
G1 X122.354 Y82.75 E14.20915
G1 X122.609 Y83.333 E14.22502
G1 X122.959 Y83.866 E14.24093
G1 X123.389 Y84.336 E14.25682
G1 X123.893 Y84.726 E14.27272
G1 X124.45 Y85.029 E14.28854
G1 X125.055 Y85.237 E14.30449
G1 X125.682 Y85.341 E14.32035
G1 X126.315 Y85.341 E14.33614
G1 X126.941 Y85.239 E14.35196
G1 X127.55 Y85.029 E14.36803
G1 X128.107 Y84.726 E14.38385
G1 X128.416 Y84.487 E14.39359
G1 X128.611 Y84.336 E14.39974
G1 X128.767 Y84.165 E14.40552
G1 X128.767 Y84.335 E14.40601
G1 X128.767 Y84.582 E14.41048
G1 X128.796 Y115.445 E15.18037
G1 X128.796 Y115.663 E15.1858
G1 X128.797 Y115.867 E15.19089
G1 X128.611 Y115.664 E15.19347
G1 X128.439 Y115.531 E15.19759
G1 X128.107 Y115.274 E15.20806
G1 X127.55 Y114.971 E15.22388
G1 X126.945 Y114.763 E15.23984
G1 X126.318 Y114.659 E15.25569
G1 X125.682 Y114.659 E15.27156
G1 X125.055 Y114.763 E15.28741
G1 X124.45 Y114.971 E15.30337
G1 X123.893 Y115.274 E15.31919
G1 X123.389 Y115.664 E15.33508
G1 X122.959 Y116.134 E15.35098
G1 X122.609 Y116.667 E15.36688
G1 X122.354 Y117.25 E15.38275
G1 X122.198 Y117.866 E15.39861
G1 X122.146 Y118.5 E15.41447
G1 X122.198 Y119.134 E15.43034
G1 X122.354 Y119.75 E15.44619
G1 X122.609 Y120.333 E15.46207
G1 X122.959 Y120.866 E15.47797
G1 X123.051 Y120.967 E15.48138
G1 X123.356 Y121.3 E15.49265
G1 X122.905 Y121.3 E15.49874
G1 X122.904 Y121.3 E15.49877
G1 X77.096 Y121.3 E16.64145
G1 X77.095 Y121.3 E16.64148
G1 X76.644 Y121.3 E16.64758
M204 S5000
G0 F3600 X76.339 Y121.041
M204 S500
G1 F1500 X76.724 Y120.62 E16.66181
G1 X77.038 Y120.142 E16.67608
G1 X77.266 Y119.62 E16.69029
G1 X77.406 Y119.068 E16.70449
G1 X77.453 Y118.5 E16.71871
G1 X77.406 Y117.932 E16.73293
G1 X77.266 Y117.38 E16.74713
G1 X77.038 Y116.858 E16.76134
G1 X76.724 Y116.38 E16.77561
G1 X76.339 Y115.959 E16.78984
G1 X75.888 Y115.61 E16.80406
G1 X75.388 Y115.338 E16.81826
G1 X74.847 Y115.152 E16.83253
G1 X74.285 Y115.059 E16.84674
G1 X73.715 Y115.059 E16.86096
G1 X73.153 Y115.152 E16.87517
G1 X72.612 Y115.338 E16.88944
G1 X72.112 Y115.61 E16.90364
G1 X71.661 Y115.959 E16.91787
G1 X71.276 Y116.38 E16.9321
G1 X71.179 Y116.527 E16.93649
G1 X70.962 Y116.858 E16.94636
G1 X70.8 Y117.229 E16.95646
G1 X70.8 Y116.858 E16.95817
G1 X70.8 Y116.462 E16.96524
G1 X70.8 Y83.538 E17.78653
G1 X70.8 Y83.142 E17.79641
G1 X70.8 Y82.771 E17.80567
G1 X70.962 Y83.142 E17.80821
G1 X71.179 Y83.473 E17.81526
G1 X71.276 Y83.62 E17.81966
G1 X71.661 Y84.041 E17.83389
G1 X72.112 Y84.39 E17.84811
G1 X72.612 Y84.662 E17.86231
G1 X73.153 Y84.848 E17.87658
G1 X73.715 Y84.941 E17.89079
G1 X74.283 Y84.941 E17.90496
G1 X74.843 Y84.85 E17.91911
G1 X75.388 Y84.662 E17.9335
G1 X75.888 Y84.39 E17.94769
G1 X76.339 Y84.041 E17.96192
G1 X76.724 Y83.62 E17.97615
G1 X77.038 Y83.142 E17.99042
G1 X77.266 Y82.62 E18.00463
G1 X77.406 Y82.068 E18.01883
G1 X77.453 Y81.5 E18.03305
G1 X77.406 Y80.932 E18.04727
G1 X77.266 Y80.38 E18.06147
G1 X77.038 Y79.858 E18.07568
G1 X76.724 Y79.38 E18.08995
G1 X76.339 Y78.959 E18.10418
G1 X75.99 Y78.689 E18.11519
G1 X75.888 Y78.61 E18.1184
G1 X75.388 Y78.338 E18.1326
G1 X75.277 Y78.3 E18.13553
G1 X75.388 Y78.3 E18.13563
G1 X75.888 Y78.3 E18.14081
G1 X76.018 Y78.3 E18.14371
G1 X123.982 Y78.3 E19.34018
G1 X124.112 Y78.3 E19.34342
G1 X124.612 Y78.3 E19.3559
G1 X124.723 Y78.3 E19.35867
G1 X124.612 Y78.338 E19.35891
G1 X124.112 Y78.61 E19.36582
G1 X124.01 Y78.689 E19.3687
G1 X123.661 Y78.959 E19.37971
G1 X123.276 Y79.38 E19.39394
G1 X122.962 Y79.858 E19.4082
G1 X122.734 Y80.38 E19.42241
G1 X122.594 Y80.932 E19.43662
G1 X122.547 Y81.5 E19.45084
G1 X122.594 Y82.068 E19.46505
G1 X122.734 Y82.62 E19.47926
G1 X122.962 Y83.142 E19.49347
G1 X123.276 Y83.62 E19.50773
G1 X123.661 Y84.041 E19.52196
G1 X124.112 Y84.39 E19.53619
G1 X124.612 Y84.662 E19.55039
G1 X125.153 Y84.848 E19.56466
G1 X125.715 Y84.941 E19.57887
G1 X126.283 Y84.941 E19.59304
G1 X126.843 Y84.85 E19.60719
G1 X127.388 Y84.662 E19.62157
G1 X127.888 Y84.39 E19.63577
G1 X128.339 Y84.041 E19.65
G1 X128.724 Y83.62 E19.66423
G1 X128.79 Y83.52 E19.66722
G1 X129.038 Y83.142 E19.67849
G1 X129.166 Y82.85 E19.68645
G1 X129.166 Y83.141 E19.68746
G1 X129.166 Y83.593 E19.69507
G1 X129.197 Y116.456 E20.51484
G1 X129.197 Y116.857 E20.52485
G1 X129.198 Y117.224 E20.534
G1 X129.038 Y116.858 E20.53647
G1 X128.818 Y116.523 E20.54358
G1 X128.724 Y116.38 E20.54785
G1 X128.339 Y115.959 E20.56208
G1 X127.888 Y115.61 E20.5763
G1 X127.388 Y115.338 E20.5905
G1 X126.847 Y115.152 E20.60477
G1 X126.285 Y115.059 E20.61898
G1 X125.715 Y115.059 E20.6332
G1 X125.153 Y115.152 E20.64741
G1 X124.612 Y115.338 E20.66168
G1 X124.112 Y115.61 E20.67588
G1 X123.661 Y115.959 E20.6901
G1 X123.276 Y116.38 E20.70434
G1 X122.962 Y116.858 E20.7186
G1 X122.734 Y117.38 E20.73281
G1 X122.594 Y117.932 E20.74702
G1 X122.547 Y118.5 E20.76123
G1 X122.594 Y119.068 E20.77545
G1 X122.734 Y119.62 E20.78966
G1 X122.962 Y120.142 E20.80387
G1 X123.276 Y120.62 E20.81813
G1 X123.661 Y121.041 E20.83236
G1 X124.01 Y121.311 E20.84337
G1 X124.112 Y121.39 E20.84659
G1 X124.612 Y121.662 E20.86079
G1 X124.723 Y121.7 E20.86371
G1 X124.612 Y121.7 E20.86381
G1 X124.112 Y121.7 E20.869
G1 X123.982 Y121.7 E20.8719
G1 X76.018 Y121.7 E22.06836
G1 X75.888 Y121.7 E22.07161
G1 X75.388 Y121.7 E22.08408
G1 X75.278 Y121.7 E22.08682
G1 X75.388 Y121.662 E22.08707
G1 X75.888 Y121.39 E22.09398
G1 X75.99 Y121.311 E22.09686
G1 X76.339 Y121.041 E22.10786
M204 S5000
G0 F3600 X75.326 Y121.514
G0 X74.745 Y121.461
M204 S500
;TYPE:WALL-OUTER
G1 F1500 X75.226 Y121.295 E22.12056
G1 X75.669 Y121.054 E22.13314
G1 X76.067 Y120.746 E22.14569
G1 X76.407 Y120.374 E22.15826
G1 X76.685 Y119.951 E22.17089
G1 X76.886 Y119.49 E22.18343
G1 X77.01 Y119.002 E22.19599
G1 X77.052 Y118.5 E22.20856
G1 X77.01 Y117.998 E22.22113
G1 X76.886 Y117.51 E22.23369
G1 X76.685 Y117.049 E22.24623
G1 X76.407 Y116.626 E22.25886
G1 X76.067 Y116.254 E22.27143
G1 X75.669 Y115.946 E22.28398
G1 X75.226 Y115.705 E22.29656
G1 X74.749 Y115.541 E22.30915
G1 X74.252 Y115.459 E22.32171
G1 X73.748 Y115.459 E22.33428
G1 X73.251 Y115.541 E22.34685
G1 X72.774 Y115.705 E22.35943
G1 X72.331 Y115.946 E22.37201
G1 X71.933 Y116.254 E22.38457
G1 X71.593 Y116.626 E22.39714
G1 X71.315 Y117.049 E22.40976
G1 X71.114 Y117.51 E22.42231
G1 X70.99 Y117.998 E22.43487
G1 X70.948 Y118.5 E22.44744
G1 X70.99 Y119.002 E22.46
G1 X71.114 Y119.49 E22.47256
G1 X71.315 Y119.951 E22.48511
G1 X71.593 Y120.374 E22.49773
G1 X71.933 Y120.746 E22.5103
G1 X72.331 Y121.054 E22.52286
G1 X72.774 Y121.295 E22.53544
G1 X73.251 Y121.459 E22.54802
G1 X73.748 Y121.541 E22.56059
G1 X74.251 Y121.541 E22.57313
G1 X74.745 Y121.461 E22.58562
M204 S5000
G0 F3600 X74.934 Y121.396
G0 X74.798 Y121.513
G0 X75.798 Y121.256
G0 X76.596 Y120.521
G0 X77.113 Y119.566
G0 X77.272 Y118.736
G0 X74.792 Y84.757
G0 X74.745 Y84.461
M204 S500
G1 F1500 X75.226 Y84.295 E22.59831
G1 X75.669 Y84.054 E22.61089
